packages/bezier-icons/icons/receipt.svg

<svg width="24" height="24" viewBox="0 0 24 24" fill="none" xmlns="http://www.w3.org/2000/svg">
<path fill-rule="evenodd" clip-rule="evenodd" d="M13.994 18.882L15.997 19.882L17 19.382V4L7 4.001V19.383L7.997 19.882L9.995 18.882L11.995 19.882L13.994 18.882ZM7.997 22.118L5 20.617V3.5C5 2.672 5.672 2 6.5 2L17.5 2.001C18.329 2.001 19 2.673 19 3.501V20.618L15.997 22.118L13.995 21.118L11.995 22.118L9.995 21.118L7.997 22.118ZM9 11C9 10.4477 9.44772 10 10 10H14C14.5523 10 15 10.4477 15 11C15 11.5523 14.5523 12 14 12H10C9.44772 12 9 11.5523 9 11ZM10 6C9.44772 6 9 6.44772 9 7C9 7.55228 9.44772 8 10 8H14C14.5523 8 15 7.55228 15 7C15 6.44772 14.5523 6 14 6H10Z" fill="#313234"/>
</svg>

<svg xmlns="http://www.w3.org/2000/svg" width="24" height="24" fill="none" viewBox="0 0 24 24"><path fill="#313234" fill-rule="evenodd" d="m13.994 18.882 2.003 1 1.003-.5V4L7 4.001v15.382l.997.499 1.998-1 2 1zm-5.997 3.236L5 20.617V3.5A1.5 1.5 0 0 1 6.5 2l11 .001a1.5 1.5 0 0 1 1.5 1.5v17.117l-3.003 1.5-2.002-1-2 1-2-1zM9 11a1 1 0 0 1 1-1h4a1 1 0 1 1 0 2h-4a1 1 0 0 1-1-1m1-5a1 1 0 0 0 0 2h4a1 1 0 1 0 0-2z" clip-rule="evenodd"/></svg>
